suite-common/icons/assets/icons/arrowDown.svg

<svg xmlns="http://www.w3.org/2000/svg" xml:space="preserve" fill="none" viewBox="0 0 9 7">
  <path d="M1.55.031a1.1 1.1 0 0 0-.547.293.99.99 0 0 0-.226 1.005c.03.088.408.763 1.479 2.639a405 405 0 0 0 1.49 2.598c.076.116.246.266.37.327.159.079.245.097.464.097.167 0 .207-.005.307-.039a.97.97 0 0 0 .488-.356c.071-.101 2.901-5.051 2.959-5.176a1.06 1.06 0 0 0-.046-.902 1.04 1.04 0 0 0-.461-.412C7.625.01 7.786.015 4.562.017A193 193 0 0 0 1.55.031"/>
</svg>

<svg xmlns="http://www.w3.org/2000/svg" xml:space="preserve" fill="none" viewBox="0 0 9 7"><path d="M1.550 0.031 C 1.363 0.063,1.137 0.184,1.003 0.324 C 0.745 0.595,0.659 0.978,0.777 1.329 C 0.807 1.417,1.185 2.092,2.256 3.968 C 3.047 5.354,3.718 6.523,3.746 6.566 C 3.822 6.682,3.992 6.832,4.116 6.893 C 4.275 6.972,4.361 6.990,4.580 6.990 C 4.747 6.990,4.787 6.985,4.887 6.951 C 5.087 6.885,5.261 6.757,5.375 6.595 C 5.446 6.494,8.276 1.544,8.334 1.419 C 8.456 1.157,8.436 0.770,8.288 0.517 C 8.185 0.341,8.024 0.197,7.827 0.105 C 7.625 0.010,7.786 0.015,4.562 0.017 C 2.948 0.018,1.593 0.024,1.550 0.031 " stroke="none" fill-rule="evenodd"></path></svg>
